Papirus/32x32/apps/libreoffice-base.svg

<?xml version="1.0" encoding="UTF-8" standalone="no"?>
<!-- Created with Inkscape (http://www.inkscape.org/) -->

<svg
   width="32"
   height="32"
   viewBox="0 0 32 32"
   version="1.1"
   id="svg5"
   inkscape:version="1.2.2 (1:1.2.2+202305151914+b0a8486541)"
   sodipodi:docname="libreoffice-base.svg"
   xmlns:inkscape="http://www.inkscape.org/namespaces/inkscape"
   xmlns:sodipodi="http://sodipodi.sourceforge.net/DTD/sodipodi-0.dtd"
   xmlns="http://www.w3.org/2000/svg"
   xmlns:svg="http://www.w3.org/2000/svg">
  <sodipodi:namedview
     id="namedview7"
     pagecolor="#ffffff"
     bordercolor="#000000"
     borderopacity="0.25"
     inkscape:showpageshadow="2"
     inkscape:pageopacity="0.0"
     inkscape:pagecheckerboard="0"
     inkscape:deskcolor="#d1d1d1"
     inkscape:document-units="px"
     showgrid="false"
     inkscape:zoom="25.9375"
     inkscape:cx="16"
     inkscape:cy="16"
     inkscape:window-width="1920"
     inkscape:window-height="1008"
     inkscape:window-x="0"
     inkscape:window-y="0"
     inkscape:window-maximized="1"
     inkscape:current-layer="svg5" />
  <defs
     id="defs2" />
  <path
     d="m 21,3 h 6 V 9 Z M 9,3 h 10 l 8,8 v 16 c 0,2.216 -1.784,4 -4,4 H 9 C 6.784,31 5,29.216 5,27 V 7 C 5,4.784 6.784,3 9,3 Z"
     style="opacity:0.2;fill:#000000;stroke-width:0.5;stroke-linecap:square"
     id="path1115"
     sodipodi:nodetypes="ccccsccssssss" />
  <path
     d="m 9,2 h 10 l 8,8 v 16 c 0,2.216 -1.784,4 -4,4 H 9 C 6.784,30 5,28.216 5,26 V 6 C 5,3.784 6.784,2 9,2 Z"
     style="opacity:1;fill:#8b3ea7;fill-opacity:1;stroke-width:0.5;stroke-linecap:square"
     id="path1004" />
  <path
     d="m 21,2 h 6 v 6 z"
     style="fill:#ab63c5;fill-opacity:1;stroke-width:0.375;stroke-linecap:square"
     id="path1087" />
  <path
     d="m 12,12 c -2.07106,0 -4,0.403915 -4,1 v 2 c 0,0.596086 1.92894,1 4,1 2.07105,0 4,-0.403914 4,-1 v -2 c 0,-0.596085 -1.92895,-1 -4,-1 z m 6,2 c -0.554,0 -1,0.446 -1,1 v 8 c 0,0.554 0.446,1 1,1 h 5 c 0.554,0 1,-0.446 1,-1 v -8 c 0,-0.554 -0.446,-1 -1,-1 z m 0,1 h 2 v 2 h -2 z m 3,0 h 2 v 2 H 21 Z M 8,16 v 2 c 0,0.596085 1.92894,1 4,1 2.07105,0 4,-0.403915 4,-1 v -2 c 0,0.596085 -1.92895,1 -4,1 -2.07106,0 -4,-0.403915 -4,-1 z m 10,2 h 2 v 2 h -2 z m 3,0 h 2 v 2 H 21 Z M 8,19 v 2 c 0,0.596085 1.92894,1 4,1 2.07105,0 4,-0.403915 4,-1 v -2 c 0,0.596085 -1.92895,1 -4,1 -2.07106,0 -4,-0.403915 -4,-1 z m 10,2 h 2 v 2 h -2 z m 3,0 h 2 v 2 H 21 Z M 8,22 v 2 c 0,0.596085 1.92894,1 4,1 2.07105,0 4,-0.403915 4,-1 v -2 c 0,0.596085 -1.92895,1 -4,1 -2.07106,0 -4,-0.403915 -4,-1 z"
     style="opacity:0.2;fill:#000000;fill-opacity:1;stroke-width:0.968246;stroke-linecap:round;stroke-linejoin:round"
     id="path463" />
  <path
     d="m 12,11 c -2.07106,0 -4,0.403914 -4,1 v 2 c 0,0.596086 1.92894,1 4,1 2.07106,0 4,-0.403914 4,-1 v -2 c 0,-0.596086 -1.92894,-1 -4,-1 z m -4,4 v 2 c 0,0.596086 1.92894,1 4,1 2.07106,0 4,-0.403914 4,-1 v -2 c 0,0.596086 -1.92894,1 -4,1 -2.07106,0 -4,-0.403914 -4,-1 z m 0,3 v 2 c 0,0.596086 1.92894,1 4,1 2.07106,0 4,-0.403914 4,-1 v -2 c 0,0.596086 -1.92894,1 -4,1 -2.07106,0 -4,-0.403914 -4,-1 z m 0,3 v 2 c 0,0.596086 1.92894,1 4,1 2.07106,0 4,-0.403914 4,-1 v -2 c 0,0.596086 -1.92894,1 -4,1 -2.07106,0 -4,-0.403914 -4,-1 z"
     style="fill:#d48ff7;fill-opacity:1;stroke-width:0.968246;stroke-linecap:round;stroke-linejoin:round"
     id="path407" />
  <path
     d="m 18,13 c -0.554,0 -1,0.446 -1,1 v 8 c 0,0.554 0.446,1 1,1 h 5 c 0.554,0 1,-0.446 1,-1 v -8 c 0,-0.554 -0.446,-1 -1,-1 z m 0,1 h 2 v 2 h -2 z m 3,0 h 2 v 2 h -2 z m -3,3 h 2 v 2 h -2 z m 3,0 h 2 v 2 h -2 z m -3,3 h 2 v 2 h -2 z m 3,0 h 2 v 2 h -2 z"
     style="fill:#ffffff;stroke-width:0.5"
     id="path435" />
  <path
     id="path2508"
     style="opacity:0.2;fill:#ffffff;stroke-width:0.5;stroke-linecap:square"
     d="M 9 2 C 6.7840022 2 5 3.7840024 5 6 L 5 7 C 5 4.7840022 6.7840022 3 9 3 L 20 3 L 19 2 L 9 2 z M 21 2 L 22 3 L 27 3 L 27 2 L 21 2 z " />
</svg>

<svg xmlns="http://www.w3.org/2000/svg" width="32" height="32" version="1.1">
 <path style="opacity:0.2" d="M 9,3 H 19 L 27,11 V 27 C 27,29.216 25.216,31 23,31 H 9 C 6.784,31 5,29.216 5,27 V 7 C 5,4.784 6.784,3 9,3 Z"/>
 <path style="fill:#8b3ea7" d="m 9,2 h 10 l 8,8 v 16 c 0,2.216 -1.784,4 -4,4 H 9 C 6.784,30 5,28.216 5,26 V 6 C 5,3.784 6.784,2 9,2 Z"/>
 <path style="fill:#ab63c5" d="m 21,2 h 6 v 6 z"/>
 <path style="opacity:0.2" d="M 12,12 C 9.93,12 8,12.4 8,13 V 15 C 8,15.6 9.93,16 12,16 14.07,16 16,15.6 16,15 V 13 C 16,12.4 14.07,12 12,12 Z M 18,15 C 17.45,15 17,15.45 17,16 V 24 C 17,24.55 17.45,25 18,25 H 23 C 23.55,25 24,24.55 24,24 V 16 C 24,15.45 23.55,15 23,15 Z M 18,16 H 20 V 18 H 18 Z M 21,16 H 23 V 18 H 21 Z M 8,16 V 18 C 8,18.6 9.93,19 12,19 14.07,19 16,18.6 16,18 V 16 C 16,16.6 14.07,17 12,17 9.93,17 8,16.6 8,16 Z M 18,19 H 20 V 21 H 18 Z M 21,19 H 23 V 21 H 21 Z M 8,19 V 21 C 8,21.6 9.93,22 12,22 14.07,22 16,21.6 16,21 V 19 C 16,19.6 14.07,20 12,20 9.93,20 8,19.6 8,19 Z M 18,22 H 20 V 24 H 18 Z M 21,22 H 23 V 24 H 21 Z M 8,22 V 24 C 8,24.6 9.93,25 12,25 14.07,25 16,24.6 16,24 V 22 C 16,22.6 14.07,23 12,23 9.93,23 8,22.6 8,22 Z"/>
 <path style="fill:#d48ff7" d="m 12,11 c -2.07,0 -4,0.4 -4,1 v 2 c 0,0.6 1.93,1 4,1 2.07,0 4,-0.4 4,-1 v -2 c 0,-0.6 -1.93,-1 -4,-1 z m -4,4 v 2 c 0,0.6 1.93,1 4,1 2.07,0 4,-0.4 4,-1 v -2 c 0,0.6 -1.93,1 -4,1 -2.07,0 -4,-0.4 -4,-1 z m 0,3 v 2 c 0,0.6 1.93,1 4,1 2.07,0 4,-0.4 4,-1 v -2 c 0,0.6 -1.93,1 -4,1 -2.07,0 -4,-0.4 -4,-1 z m 0,3 v 2 c 0,0.6 1.93,1 4,1 2.07,0 4,-0.4 4,-1 v -2 c 0,0.6 -1.93,1 -4,1 -2.07,0 -4,-0.4 -4,-1 z"/>
 <path style="fill:#ebd9f1" d="M 18,14 C 17.446,14 17,14.446 17,15 V 23 C 17,23.554 17.446,24 18,24 H 23 C 23.554,24 24,23.554 24,23 V 15 C 24,14.446 23.554,14 23,14 Z M 18,15 H 20 V 17 H 18 Z M 21,15 H 23 V 17 H 21 Z M 18,18 H 20 V 20 H 18 Z M 21,18 H 23 V 20 H 21 Z M 18,21 H 20 V 23 H 18 Z M 21,21 H 23 V 23 H 21 Z"/>
 <path style="opacity:0.2;fill:#ffffff" d="M 21,2 22,3 H 27 V 2 Z"/>
 <path style="fill:#ffffff;opacity:0.1" d="M 9 2 C 6.784 2 5 3.784 5 6 L 5 7 C 5 4.784 6.784 3 9 3 L 19 3 L 27 11 L 27 10 L 19 2 L 9 2 z"/>
</svg>
